svg/shield-check.svg

<?xml version="1.0" encoding="UTF-8"?>
<svg xmlns="http://www.w3.org/2000/svg" xmlns:xlink="http://www.w3.org/1999/xlink" width="32" height="32" viewBox="0 0 32 32">
<path fill-rule="nonzero" fill="rgb(0%, 0%, 0%)" fill-opacity="1" d="M 29.578125 5.023438 C 24.839844 3.984375 22.042969 2.511719 20 1.433594 C 18.414062 0.601562 17.265625 0 16 0 C 14.734375 0 13.585938 0.601562 12 1.433594 C 9.957031 2.511719 7.160156 3.984375 2.421875 5.023438 L 1.921875 5.132812 L 1.921875 5.648438 C 1.921875 25.140625 15.59375 31.683594 15.734375 31.746094 L 16.011719 31.875 L 16.289062 31.734375 C 16.425781 31.664062 30.078125 24.496094 30.078125 5.648438 L 30.078125 5.132812 Z M 15.628906 19.941406 L 10.613281 15.40625 L 11.476562 14.457031 L 15.371094 17.980469 L 20.925781 9.355469 L 22.003906 10.046875 Z M 15.628906 19.941406 "/>
</svg>

<svg role="img" viewBox="0 0 32 32" height="32" width="32" xmlns="http://www.w3.org/2000/svg"><path d="M29.578 5.023C24.84 3.984 22.043 2.512 20 1.433 18.414.603 17.266 0 16 0s-2.414.602-4 1.434c-2.043 1.078-4.84 2.55-9.578 3.59l-.5.109v.515c0 19.493 13.672 26.036 13.812 26.098l.278.129.277-.14c.137-.07 13.79-7.239 13.79-26.087v-.515Zm-13.95 14.918-5.015-4.535.864-.949 3.894 3.523 5.555-8.625 1.078.692Zm0 0"/></svg>
